src/assets/icons/categories/icon-cat-transportation.svg

<svg xmlns="http://www.w3.org/2000/svg" width="32" height="32" viewBox="0 0 32 32">
  <g fill="none" fill-rule="evenodd">
    <circle cx="16" cy="16" r="16" fill="#4DCEC5"/>
    <path fill="#FFFFFF" d="M14.5,13 L13.809,13 L12.947,14.724 C12.859,14.898 12.683,15 12.499,15 C12.424,15 12.348,14.982 12.275,14.947 C12.029,14.823 11.929,14.523 12.053,14.276 L13.053,12.276 C13.138,12.106 13.311,12 13.5,12 L14.5,12 C14.775,12 15,12.224 15,12.5 C15,12.776 14.775,13 14.5,13 M27.5,19 C27.775,19 28,19.224 28,19.5 C28,19.776 27.775,20 27.5,20 L25.202,20 C25.232,19.838 25.25,19.671 25.25,19.5 C25.25,17.983 24.016,16.75 22.5,16.75 C20.983,16.75 19.75,17.983 19.75,19.5 C19.75,19.671 19.768,19.838 19.798,20 L11.202,20 C11.232,19.838 11.25,19.671 11.25,19.5 C11.25,17.983 10.016,16.75 8.5,16.75 C6.983,16.75 5.75,17.983 5.75,19.5 C5.75,19.671 5.768,19.838 5.798,20 L4.5,20 C4.224,20 4,19.776 4,19.5 L4,16 C4,14.896 4.896,14 6,14 L9.69,14 L11.553,10.276 C11.638,10.106 11.811,10 12,10 L21.5,10 C21.689,10 21.862,10.106 21.947,10.276 L23.809,14 L25,14 C26.103,14 27,14.896 27,16 L27,19 L27.5,19 Z M8.5,17.25 C9.74,17.25 10.75,18.259 10.75,19.5 C10.75,20.74 9.74,21.75 8.5,21.75 C7.259,21.75 6.25,20.74 6.25,19.5 C6.25,18.259 7.259,17.25 8.5,17.25 Z M22.5,17.25 C23.74,17.25 24.75,18.259 24.75,19.5 C24.75,20.74 23.74,21.75 22.5,21.75 C21.259,21.75 20.25,20.74 20.25,19.5 C20.25,18.259 21.259,17.25 22.5,17.25 Z"/>
  </g>
</svg>

<svg xmlns="http://www.w3.org/2000/svg" viewBox="0 0 32 32"><g fill="none" fill-rule="evenodd"><circle cx="16" cy="16" r="16" fill="#4DCEC5"/><path fill="#FFFFFF" d="M14.5 13h-.7l-.85 1.72a.5.5 0 0 1-.67.23.5.5 0 0 1-.23-.67l1-2a.5.5 0 0 1 .45-.28h1a.5.5 0 0 1 0 1m13 6a.5.5 0 0 1 0 1h-2.3a2.74 2.74 0 0 0-2.7-3.25A2.75 2.75 0 0 0 19.8 20h-8.6a2.74 2.74 0 0 0-2.7-3.25A2.75 2.75 0 0 0 5.8 20H4.5a.5.5 0 0 1-.5-.5V16c0-1.1.9-2 2-2h3.69l1.86-3.72A.5.5 0 0 1 12 10h9.5c.19 0 .36.1.45.28L23.8 14H25a2 2 0 0 1 2 2v3h.5zm-19-1.75a2.25 2.25 0 1 1 0 4.5 2.25 2.25 0 0 1 0-4.5zm14 0a2.25 2.25 0 1 1 0 4.5 2.25 2.25 0 0 1 0-4.5z"/></g></svg>
